X:1
T: I wish you would marry me now
P:Bremner Collection 1757
R:Reel
Q: 232
K:Am
M:4/4
L:1/8
|:EA AB c2 ce|dc BA GA BG|AE E1/2E1/2E c2 ce|dB gB A1/2A1/2A A2|
EA AB c2 ce|dc BA GA BG|AE E1/2E1/2E c2 ce|dB gB A1/2A1/2A A2|
ag ea ge ae|ge dg BG dB|ag ea ge ae|ge dB A1/2A1/2A A2|
ag ea ge ae|ge dg BG dB|cA dB ec ae|ge dB A1/2A1/2A A2:|
